src/sprites/svg/shipping.svg

<svg xmlns="http://www.w3.org/2000/svg" viewBox="0 0 59 35"><path d="M57.54 31.57h-2.8c-.5 1.97-2.27 3.43-4.38 3.43-2.1 0-3.9-1.46-4.4-3.43H44 30.58C30.08 33.54 28.3 35 26.2 35s-3.9-1.46-4.4-3.43h-3.83c-.8 0-1.46-.65-1.46-1.46V6.97l.02-.14.02-.06V6.7c0-.04 0-.06.02-.1v-.05l.04-.07s0-.04.02-.06c0-.03 0-.04.02-.06l.04-.06c0-.03.03-.04.04-.07l.03-.06c.02-.02.04-.03.05-.06l.04-.04.08-.1h.02l5.5-5.52c.27-.27.63-.43 1.02-.43h15.06c.4 0 .75.16 1.03.44L45.05 6l.1.1c0 .03.02.05.03.06l.05.06.04.06c0 .03.02.04.03.06l.04.07c0 .03 0 .04.02.07.02 0 .02.03.03.06v.07l.02.06.02.07v.08l.02.07V9.8h5.32c2.3 0 4.4.9 5.86 2.48 1.56 1.68 2.37 4.1 2.36 6.94v10.9c0 .8-.66 1.45-1.46 1.45zm-31.33.54c.9 0 1.63-.72 1.63-1.6 0-.9-.73-1.64-1.62-1.64-.88 0-1.6.74-1.6 1.63 0 .88.72 1.6 1.6 1.6zm3.16-29.16h-5.3l-2.57 2.6h7.86v-2.6zm8.55 0h-5.63v2.6h8.23l-2.6-2.6zm4.66 8.34v-2.8H19.43v20.2h2.62c.68-1.6 2.3-2.74 4.16-2.74 1.87 0 3.47 1.13 4.17 2.74H42.56v-17.4zm7.8 20.83c.9 0 1.63-.72 1.63-1.6 0-.9-.74-1.64-1.63-1.64-.9 0-1.62.74-1.62 1.63 0 .88.73 1.6 1.62 1.6zm5.75-12.83c0-4.1-1.97-6.53-5.3-6.53h-5.3v15.94h.73c.7-1.6 2.3-2.74 4.15-2.74 1.86 0 3.47 1.13 4.16 2.74h1.56v-9.4zm-42.23 6.47H5.9c-.8 0-1.47-.66-1.47-1.46 0-.8.66-1.47 1.46-1.47h7.97c.8 0 1.46.67 1.46 1.48 0 .8-.65 1.46-1.46 1.46zm0-5.7H1.45c-.8 0-1.46-.66-1.46-1.47 0-.8.65-1.46 1.45-1.46h12.42c.8 0 1.46.67 1.46 1.47 0 .8-.65 1.47-1.46 1.47zm0-5.7H5.9c-.8 0-1.47-.66-1.47-1.47 0-.8.66-1.46 1.46-1.46h7.97c.8 0 1.46.67 1.46 1.47 0 .8-.65 1.47-1.46 1.47z"/></svg>

<?xml version="1.0" encoding="utf-8"?>
<svg xmlns="http://www.w3.org/2000/svg"
	xmlns:xlink="http://www.w3.org/1999/xlink"
	 viewBox="0 0 59 35">
<path fillRule="evenodd" d="M 57.54 31.57C 57.54 31.57 54.75 31.57 54.75 31.57 54.25 33.54 52.47 35 50.36 35 48.26 35 46.47 33.54 45.97 31.57 45.97 31.57 44 31.57 44 31.57 44 31.57 30.58 31.57 30.58 31.57 30.09 33.54 28.3 35 26.2 35 24.09 35 22.31 33.54 21.81 31.57 21.81 31.57 17.97 31.57 17.97 31.57 17.17 31.57 16.51 30.92 16.51 30.11 16.51 30.11 16.51 6.96 16.51 6.96 16.51 6.92 16.52 6.87 16.52 6.82 16.52 6.81 16.54 6.78 16.54 6.76 16.54 6.73 16.55 6.71 16.55 6.69 16.55 6.66 16.55 6.64 16.56 6.61 16.56 6.6 16.56 6.58 16.57 6.55 16.58 6.53 16.58 6.5 16.6 6.48 16.61 6.47 16.61 6.44 16.62 6.42 16.62 6.39 16.63 6.38 16.64 6.36 16.66 6.34 16.67 6.32 16.68 6.3 16.69 6.27 16.71 6.26 16.72 6.23 16.73 6.22 16.74 6.2 16.75 6.17 16.77 6.15 16.79 6.14 16.8 6.11 16.81 6.1 16.83 6.08 16.84 6.06 16.86 6.03 16.89 6 16.92 5.97 16.94 5.95 16.94 5.95 16.94 5.95 16.94 5.95 22.43 0.44 22.43 0.44 22.71 0.17 23.07 0.01 23.46 0.01 23.46 0.01 38.52 0.01 38.52 0.01 38.91 0.01 39.27 0.16 39.55 0.44 39.55 0.44 45.05 6 45.05 6 45.06 6.01 45.06 6.01 45.06 6.01 45.08 6.04 45.12 6.08 45.15 6.11 45.16 6.13 45.17 6.15 45.18 6.16 45.21 6.19 45.22 6.2 45.23 6.22 45.24 6.23 45.25 6.26 45.27 6.28 45.28 6.31 45.29 6.32 45.3 6.34 45.32 6.36 45.33 6.38 45.34 6.41 45.34 6.43 45.35 6.44 45.36 6.47 45.38 6.48 45.38 6.5 45.39 6.53 45.4 6.55 45.4 6.58 45.41 6.6 45.41 6.61 45.42 6.64 45.42 6.66 45.42 6.69 45.44 6.71 45.44 6.73 45.44 6.76 45.45 6.78 45.45 6.81 45.45 6.82 45.46 6.84 45.46 6.87 45.47 6.91 45.47 6.96 45.47 7 45.47 7 45.47 9.81 45.47 9.81 45.47 9.81 50.78 9.81 50.78 9.81 53.09 9.81 55.17 10.69 56.64 12.28 58.2 13.96 59.01 16.38 59 19.22 59 19.22 59 30.11 59 30.11 59 30.92 58.34 31.57 57.54 31.57ZM 26.21 32.11C 27.1 32.11 27.83 31.38 27.83 30.49 27.83 29.6 27.1 28.86 26.21 28.86 25.32 28.86 24.59 29.6 24.59 30.49 24.59 31.38 25.32 32.11 26.21 32.11ZM 29.36 2.94C 29.36 2.94 24.07 2.94 24.07 2.94 24.07 2.94 21.49 5.53 21.49 5.53 21.49 5.53 29.36 5.53 29.36 5.53 29.36 5.53 29.36 2.94 29.36 2.94ZM 37.91 2.95C 37.91 2.95 32.27 2.95 32.27 2.95 32.27 2.95 32.27 5.54 32.27 5.54 32.27 5.54 40.5 5.54 40.5 5.54 40.5 5.54 37.91 2.95 37.91 2.95ZM 42.56 11.28C 42.56 11.28 42.56 8.47 42.56 8.47 42.56 8.47 19.43 8.47 19.43 8.47 19.43 8.47 19.43 28.68 19.43 28.68 19.43 28.68 21.85 28.68 21.85 28.68 21.92 28.68 21.98 28.68 22.04 28.69 22.73 27.07 24.34 25.94 26.21 25.94 28.07 25.94 29.67 27.07 30.37 28.68 30.39 28.68 30.4 28.68 30.43 28.68 30.43 28.68 42.56 28.68 42.56 28.68 42.56 28.68 42.56 11.28 42.56 11.28ZM 50.37 32.11C 51.27 32.11 51.99 31.38 51.99 30.49 51.99 29.6 51.26 28.86 50.37 28.86 49.48 28.86 48.75 29.6 48.75 30.49 48.75 31.38 49.48 32.11 50.37 32.11ZM 56.11 19.27C 56.11 15.18 54.13 12.74 50.8 12.74 50.8 12.74 45.49 12.74 45.49 12.74 45.49 12.74 45.49 28.68 45.49 28.68 45.49 28.68 46.23 28.68 46.23 28.68 46.92 27.07 48.52 25.94 50.38 25.94 52.24 25.94 53.85 27.07 54.54 28.68 54.54 28.68 56.1 28.68 56.1 28.68 56.1 28.68 56.11 28.68 56.11 28.68 56.11 28.68 56.11 19.27 56.11 19.27ZM 13.87 25.74C 13.87 25.74 5.89 25.74 5.89 25.74 5.09 25.74 4.43 25.08 4.43 24.28 4.43 23.47 5.09 22.81 5.89 22.81 5.89 22.81 13.87 22.81 13.87 22.81 14.68 22.81 15.33 23.47 15.33 24.28 15.33 25.08 14.68 25.74 13.87 25.74ZM 13.87 20.04C 13.87 20.04 1.45 20.04 1.45 20.04 0.65 20.04-0.01 19.38-0.01 18.57-0.01 17.77 0.65 17.11 1.45 17.11 1.45 17.11 13.87 17.11 13.87 17.11 14.68 17.11 15.33 17.77 15.33 18.57 15.33 19.38 14.68 20.04 13.87 20.04ZM 13.87 14.34C 13.87 14.34 5.89 14.34 5.89 14.34 5.09 14.34 4.43 13.68 4.43 12.87 4.43 12.07 5.09 11.41 5.89 11.41 5.89 11.41 13.87 11.41 13.87 11.41 14.68 11.41 15.33 12.07 15.33 12.87 15.33 13.68 14.68 14.34 13.87 14.34Z" /></svg>
